X: 330
T:Marguerite
N: Derived from Jos2725-Marguerite.krn
C: Josquin des Prez
%%abc-version 2.0
%%abcx-abcm2ps-target-version 5.9.1 (29 Sep 2008)
%%abc-creator hum2abc beta
%%abcx-conversion-date 2019/02/12 16:15:54
%%abc-edited-by Jesse Rodin
%%abc-edited-by Megan K. Eagen 05/28/2012
%%abcx-initial-encoding-date 2012/06/04/
%%humdrum-veritas 2311701842
%%humdrum-veritas-data 2609651078
%%linebreak <none>
%%barnumbers 0
L: 1/4
M: 2/1
Q: 1/2=120
V: 1 clef=treble
V: 2 clef=treble
V: 3 clef=treble-8
K: F
[V:1] z8 [I:setbarnb 2]| 
[V:2] D6E2 | 
[V:3] D8- | 
[V:1] A6=B2 | 
[V:2] F6ED | 
[V:3] D8 | 
[V:1] c6BA | 
[V:2] C6D2 | 
[V:3] A6B2 | 
[V:1] G6A2 | 
[V:2] E4F4 | 
[V:3] c6BA | 
[V:1] =B4c4 | 
[V:2] G6FE | 
[V:3] G6A2 | 
[V:1] d6c=B | 
[V:2] D8 | 
[V:3] B4c4 | 
[V:1] A8 | 
[V:2] z4F4 | 
[V:3] d6c2 | 
[V:1] z4c4 | 
[V:2] G4A4 | 
[V:3] B4A4 | 
[V:1] d4e4 | 
[V:2] D4z2C2 | 
[V:3] z2G2c2e2 | 
[V:1] A4z2e2- | 
[V:2] F3DF2G2 | 
[V:3] d2d4cB | 
[V:1] edf3edc | 
[V:2] A8 | 
[V:3] c2d3cBA | 
[V:1] d3cd4 | 
[V:2] B8 | 
[V:3] G2A4G2 | 
[V:1] ^c3de2f2- | 
[V:2] A3Bc2d2- | 
[V:3] A4z4 | 
[V:1] f2e2f2g2- | 
[V:2] d2c2A2B2- | 
[V:3] z2c2f2e2- | 
[V:1] gfed^c3=B/c/ | 
[V:2] BAGFE4 | 
[V:3] ecd2A4 | 
[V:1] d8 | 
[V:2] D8- | 
[V:3] D2G3AB2- | 
[V:1] z8 | 
[V:2] D8 | 
[V:3] BAGFG2FE | 
[V:1] A8 | 
[V:2] z8 | 
[V:3] D4z4 | 
[V:1] G4G4 | 
[V:2] z8 | 
[V:3] E3FG2E2 | 
[V:1] F4D4 | 
[V:2] A8 | 
[V:3] D2d3ef2- | 
[V:1] E8 | 
[V:2] G4G4 | 
[V:3] f2edc3B | 
[V:1] D8 | 
[V:2] F4D4 | 
[V:3] d6cB | 
[V:1] z4G4 | 
[V:2] E8 | 
[V:3] A4c4 | 
[V:1] A4=B4 | 
[V:2] D8 | 
[V:3] z4G4 | 
[V:1] c4d4 | 
[V:2] z4G4 | 
[V:3] A4B4 | 
[V:1] c2A4G2 | 
[V:2] A4B4 | 
[V:3] A2GFE4 | 
[V:1] A4B4 | 
[V:2] c4d4 | 
[V:3] z2A4G2 | 
[V:1] A2F4B2- | 
[V:2] c4f4- | 
[V:3] A4d4- | 
[V:1] BAGFG4 | 
[V:2] f2e2e2d2 | 
[V:3] d2cBc4 | 
[V:1] z4D4- | 
[V:2] f8 | 
[V:3] d6c2 | 
[V:1] D4C4 | 
[V:2] d4e4 | 
[V:3] B4A4 | 
[V:1] D4F4- | 
[V:2] A2d3cd2- | 
[V:3] F2G2A2B2- | 
[V:1] F4E4 | 
[V:2] dcBAB4 | 
[V:3] BAGFG4 | 
[V:1] !fermata!F8- | 
[V:2] !fermata!A8- | 
[V:3] F6D2 | 
[V:1] F8 | 
[V:2] A8 | 
[V:3] !fermata!D8 | 
[V:1] z8 | 
[V:2] z8 | 
[V:3] z8 | 
[V:1] F8 | 
[V:2] A6B2 | 
[V:3] D8 | 
[V:1] E8 | 
[V:2] c8 | 
[V:3] A8 | 
[V:1] D8 | 
[V:2] d2f4ed | 
[V:3] B8 | 
[V:1] G8 | 
[V:2] e6dc | 
[V:3] c6BA | 
[V:1] G6FG | 
[V:2] B8 | 
[V:3] G8 | 
[V:1] A8 | 
[V:2] A4f4- | 
[V:3] F8 | 
[V:1] D4G4- | 
[V:2] f2e2e4- | 
[V:3] z4c4 | 
[V:1] G4F4 | 
[V:2] e2d2d4- | 
[V:3] c4d4 | 
[V:1] E8 | 
[V:2] d4^c4 | 
[V:3] A8 | 
[V:1] D4F4 | 
[V:2] d8 | 
[V:3] D2G3FD2 | 
[V:1] E4A4- | 
[V:2] c4A4 | 
[V:3] A8 | 
[V:1] A2G2G2F2 | 
[V:2] B8 | 
[V:3] z4E4 | 
[V:1] A8 | 
[V:2] A2c3BA2 | 
[V:3] F2A3Bc2 | 
[V:1] z4d4 | 
[V:2] BAGFG4 | 
[V:3] dcBAB4 | 
[V:1] c4A4- | 
[V:2] A8 | 
[V:3] A8 | 
[V:1] A2=B2c2d2 | 
[V:2] z4F4 | 
[V:3] D8 | 
[V:1] e4f4- | 
[V:2] E4D4 | 
[V:3] z8 | 
[V:1] f4e2d2 | 
[V:2] F4G4 | 
[V:3] d6cB | 
[V:1] ^c8 | 
[V:2] A6GF | 
[V:3] A8- | 
[V:1] z4^c4- | 
[V:2] E2F2E2A2- | 
[V:3] A8- | 
[V:1] c2=B2^c4 | 
[V:2] A2GFG2A2 | 
[V:3] A8 | 
[V:1] d4e2f2- | 
[V:2] D4z4 | 
[V:3] B4c2d2- | 
[V:1] fed3ce2- | 
[V:2] F3GA2G2- | 
[V:3] def3ec2- | 
[V:1] ed^c=Bc4 | 
[V:2] GFD2E4 | 
[V:3] c2d2A4 | 
[V:1] d6cB | 
[V:2] D8 | 
[V:3] z2B4AG | 
[V:1] A2B4A2- | 
[V:2] D4G2F2- | 
[V:3] F2G3FD2- | 
[V:1] A2GFE4 | 
[V:2] FED4C2 | 
[V:3] DEFGA4 | 
[V:1] F2D2F2G2 | 
[V:2] D2A4B2 | 
[V:3] D4d2B2 | 
[V:1] A4G2A2- | 
[V:2] c3de2f2- | 
[V:3] A3Bc2F2- | 
[V:1] A2GFE4 | 
[V:2] f2ed^c2=Bc | 
[V:3] F2G2A4 | 
[V:1] D8 |]  
[V:2] d8 |]  
[V:3] D8 |]  



